X:1
T:Poigne de mains
E:12
Z:Roger Ngaret (94-95)
R:
C:Trad.
S:
A:Bretagne
M:2/4
L:1/16
K:F
Q:1/4=150
"F"F2F2 A4 | (3B2"Gm"A2B2 "F"c2c2 | A2F2 A4 | G4 F4 ::\
c2de f2c2 | "C"B2c2 "F"A2F2 | "C"E2F2 "F"A4 |1\
(3B2"Gm"A2B2 "F"c4 :|2 "Gm"G4 "F"F4 |]
